X:14
T:K331 piano sonata n11 3mov simplified
M:2/4
L:1/16
K:C
xA2A2^G2A2 | c8d2c2B2c2 | e8f2e2^d2e2 | b2a2^g2a2b2a2^g2a2| c'8a4c'4 | b4a4g4a4 | b4a4g4a4 | b4a4g4^f4 | e8B2A2^G2A2 |
